X:1
T:Title
%%score 1 2
L:1/8
Q:1/4=120
M:3/2
K:Eb
V:1 treble nm="Choir Aahs, Carman"
V:2 bass nm="Choir Aahs, Tempo Track"
V:1
 [EG]2 [EB]2 [EB]6 [EA]2 | [DF]2 [Fc]2 [Gc]4 [GB]4 | [FB]2 [Ee]2 [Ae]2 [Ad]2 [Gd]2 [Gc]2 | %3
w: By~Peter~C.~Lutkin,~1895 * * *|||
 [GB]2 [FA]2 [Ac]3 [FA] [DF]4 | [EG]2 [EB]2 [EB]6 [EA]2 | [DF]2 [Fc]2 [Gc]4 [GB]4 | %6
w: |||
 [FB]2 [Ee]2 [Ee]2 [Ec]2 [EB]2 [EA]2 | [EG]2 [EF]2 [DG]3 [EF] E4 |] %8
w: ||
V:2
 [E,E]2 [G,B,]2 [F,C]6 [F,C]2 | [A,B,]2 [A,D]2 [G,E]4 [B,E]4 | %2
 [A,D]2 [G,B,]2 [F,B,]2 [F,B,]2 [E,=B,]2 [E,C]2 | [=E,C]2 [F,C]2 [A,,C]3 [A,,C] [B,,B,]4 | %4
 [E,B,]2 [G,B,]2 [F,C]6 [F,C]2 | [A,B,]2 [A,D]2 [G,E]4 [B,E]4 | %6
 [A,D]2 [G,_D]2 [A,C]2 [A,,E]2 [G,,D]2 [A,,C]2 | [B,,B,]2 [C,=A,]2 [B,,B,]3 [B,,_A,] [E,G,]4 |] %8

